X: 10734
Q: "Slow."
M: C
L: 1/16
K: F
|:\
c2f2 Tg2fg a2f2d3f | c3f a2gf d2g2g2a2 |
c3f Tg2fg a2f2d3f | c2A2F2C2 D3F F4 |\
c3f Tg2fg a2f2d3f | c3f a2gf d2g2g3a |\
b3ag3f c3A f3d | cAGF D3C D2F2 F4 |]


